img/icons/svg/contracts__icon-1.svg

<svg width="37" height="37" fill="none" xmlns="http://www.w3.org/2000/svg">
  <path d="M35.8801 14.8269L33.2821 14.3789C32.9685 13.1695 32.4758 12.0048 31.8487 10.9298L33.3717 8.77966C33.7748 8.24213 33.73 7.48063 33.2373 7.03269L29.9225 3.71792C29.4746 3.22518 28.7131 3.18039 28.1755 3.58354L26.0254 5.10654C24.9504 4.52421 23.7857 4.03148 22.6211 3.71792L22.1731 1.11985C22.0835 0.447942 21.5012 0 20.8293 0H16.1707C15.4988 0 14.9165 0.447942 14.8269 1.11985L14.3789 3.71792C13.1695 4.03148 12.0048 4.52421 10.9298 5.15133L8.77966 3.62833C8.24213 3.22518 7.48063 3.26998 7.03269 3.76271L3.71792 7.07748C3.22518 7.52542 3.18039 8.28693 3.58354 8.82446L5.10654 10.9746C4.52421 12.0496 4.03148 13.2143 3.71792 14.3789L1.11985 14.8269C0.447942 14.9165 0 15.4988 0 16.1707V20.8293C0 21.5012 0.447942 22.0835 1.11985 22.1731L3.71792 22.6211C4.03148 23.8305 4.52421 24.9952 5.15133 26.0702L3.62833 28.2203C3.22518 28.7579 3.26998 29.5194 3.76271 29.9673L7.07748 33.2821C7.52542 33.7748 8.28693 33.8196 8.82446 33.4165L10.9746 31.8935C12.0496 32.4758 13.2143 32.9685 14.3789 33.2821L14.8269 35.8801C14.9165 36.5521 15.4988 37 16.1707 37H20.8293C21.5012 37 22.0835 36.5521 22.1731 35.8801L22.6211 33.2821C23.8305 32.9685 24.9952 32.4758 26.0702 31.8487L28.2203 33.3717C28.7579 33.7748 29.5194 33.73 29.9673 33.2373L33.2821 29.9225C33.7748 29.4746 33.8196 28.7131 33.4165 28.1755L31.8935 26.0254C32.4758 24.9504 32.9685 23.7857 33.2821 22.6211L35.8801 22.1731C36.5521 22.0835 37 21.5012 37 20.8293V16.1707C37 15.4988 36.5521 14.9165 35.8801 14.8269ZM18.5 25.891C14.4237 25.891 11.109 22.5763 11.109 18.5C11.109 14.4237 14.4237 11.109 18.5 11.109C22.5763 11.109 25.891 14.4237 25.891 18.5C25.891 22.5763 22.5763 25.891 18.5 25.891Z" fill="#304BAB"/>
</svg>

<svg width="37" height="37" fill="none" xmlns="http://www.w3.org/2000/svg"><path d="M35.88 14.827l-2.598-.448a13.698 13.698 0 00-1.433-3.45l1.523-2.15c.403-.537.358-1.298-.135-1.746l-3.315-3.315c-.447-.493-1.209-.538-1.747-.134l-2.15 1.523c-1.075-.583-2.24-1.076-3.404-1.39l-.448-2.597C22.083.448 21.501 0 20.83 0h-4.658c-.672 0-1.255.448-1.344 1.12l-.448 2.598c-1.21.313-2.374.806-3.45 1.433L8.78 3.628c-.537-.403-1.298-.358-1.746.135L3.718 7.077c-.493.448-.538 1.21-.134 1.747l1.523 2.15c-.583 1.076-1.076 2.24-1.39 3.405l-2.597.448c-.672.09-1.12.672-1.12 1.344v4.658c0 .672.448 1.255 1.12 1.344l2.598.448c.313 1.21.806 2.374 1.433 3.45l-1.523 2.15c-.403.537-.358 1.298.135 1.746l3.314 3.315c.448.493 1.21.538 1.747.135l2.15-1.524c1.076.583 2.24 1.075 3.405 1.39l.448 2.597c.09.672.672 1.12 1.344 1.12h4.658c.672 0 1.255-.448 1.344-1.12l.448-2.598a13.698 13.698 0 003.45-1.433l2.15 1.523c.537.403 1.298.358 1.746-.135l3.315-3.315c.493-.447.538-1.209.135-1.747l-1.524-2.15c.583-1.075 1.075-2.24 1.39-3.404l2.597-.448c.672-.09 1.12-.672 1.12-1.344v-4.658c0-.672-.448-1.255-1.12-1.344zM18.5 25.89a7.398 7.398 0 01-7.391-7.391 7.398 7.398 0 017.391-7.391 7.398 7.398 0 017.391 7.391A7.398 7.398 0 0118.5 25.89z" fill="#304BAB"/></svg>
